src/assets/svg-icons/ordum-logo-light.svg

<svg width="167" height="35" viewBox="0 0 167 35" fill="none" xmlns="http://www.w3.org/2000/svg">
<path d="M52.0788 31C60.0235 31 65.1951 26.0725 65.1951 18.5C65.1951 10.9275 60.0235 6 52.0788 6C44.209 6 39 10.9275 39 18.5C39 26.0725 44.209 31 52.0788 31ZM52.0788 27.2319C46.1203 27.2319 43.2722 24.5507 43.2722 18.5C43.2722 12.4493 46.1203 9.73188 52.0788 9.73188C58.0374 9.73188 60.9229 12.4493 60.9229 18.5C60.9229 24.5507 58.0374 27.2319 52.0788 27.2319Z" fill="#F5F5F5"/>
<path d="M72.2325 30.6377V20.529C72.2325 17.3043 73.5441 15.6014 76.7295 15.6014C79.5027 15.6014 80.6269 16.7971 80.6269 19.3696V20.9638H84.6368V18.6087C84.6368 15.2029 82.8005 12.2681 78.5658 12.2681C74.7433 12.2681 72.7197 14.587 72.1576 17.4855H71.8952V12.6304H68.1852V30.6377H72.2325Z" fill="#F5F5F5"/>
<path d="M95.386 31C99.5832 31 102.319 29.0435 103.106 25.4565H103.368V30.6377H107.078V6.36232H103.031V17.5217H102.806C102.057 14.4783 99.5457 12.2681 95.1236 12.2681C89.4649 12.2681 86.242 16.0362 86.242 21.6522C86.242 27.1957 89.5024 31 95.386 31ZM90.3268 21.6522C90.3268 17.3043 92.6503 15.8188 96.5477 15.8188C100.707 15.8188 103.031 17.7029 103.031 21.5435V21.8333C103.031 25.6014 100.595 27.413 96.6226 27.413C92.6128 27.413 90.3268 25.9638 90.3268 21.6522Z" fill="#F5F5F5"/>
<path d="M118.578 31C123.375 31 125.848 28.1014 126.448 25.058H126.672V30.6377H130.382V12.6304H126.373V21.5435C126.373 25.4565 124.461 27.4855 120.339 27.4855C116.404 27.4855 114.793 25.7826 114.793 22.413V12.6304H110.783V23.4638C110.783 27.6304 113.331 31 118.578 31Z" fill="#F5F5F5"/>
<path d="M138.107 30.6377V21.7246C138.107 17.7391 139.493 15.7826 143.503 15.7826C147.101 15.7826 148.525 17.3043 148.525 20.8551V30.6377H152.535V21.7246C152.535 17.7391 153.959 15.7826 157.931 15.7826C161.529 15.7826 162.99 17.3043 162.99 20.8551V30.6377H167V19.8043C167 15.4565 164.564 12.2681 159.73 12.2681C155.008 12.2681 152.909 15.1304 152.422 18.2101H152.197C151.673 14.7681 149.387 12.2681 145.152 12.2681C140.505 12.2681 138.481 15.058 137.994 18.0652H137.769V12.6304H134.059V30.6377H138.107Z" fill="#F5F5F5"/>
<g clip-path="url(#clip0_2480_26774)">
<path d="M24.7528 7.87645C24.7363 7.86022 24.7363 7.82778 24.7528 7.81156C24.7693 7.79533 24.8022 7.79533 24.8187 7.81156C27.0922 10.0503 28.0477 13.165 27.7594 16.3851C27.4711 19.6053 25.9307 22.9309 23.2207 25.5995C21.1531 27.6354 18.7067 28.9981 16.219 29.6551C13.6572 30.3365 11.0378 30.2716 8.75607 29.4361C8.73136 29.428 8.72313 29.4037 8.73136 29.3793C8.7396 29.355 8.76431 29.3469 8.78902 29.355C11.0543 30.1824 13.649 30.2472 16.2025 29.5659C18.6819 28.9089 21.1119 27.5543 23.163 25.5346C25.8648 22.8741 27.3887 19.5729 27.677 16.3689C27.9571 13.1812 27.0098 10.0989 24.7528 7.87645ZM5.21406 27.1163C5.23054 27.1325 5.23054 27.165 5.21406 27.1812C5.19759 27.1974 5.16464 27.1974 5.14817 27.1812C2.87469 24.9425 1.91917 21.8278 2.20747 18.6076C2.49578 15.3875 4.03614 12.0618 6.75443 9.38514C8.82197 7.34922 11.2684 5.98653 13.7561 5.32952C16.3179 4.64817 18.9373 4.71306 21.219 5.54852C21.2437 5.55663 21.252 5.58097 21.2437 5.6053C21.2355 5.62963 21.2108 5.63774 21.1861 5.62963C18.9208 4.80229 16.3261 4.7374 13.7725 5.41874C11.2931 6.07575 8.86316 7.43033 6.81209 9.45003C4.11028 12.1105 2.58639 15.4118 2.29808 18.6157C2.00978 21.8116 2.95706 24.8938 5.21406 27.1163Z" fill="#F5F5F5"/>
<path d="M24.1103 8.45162C24.1268 8.4354 24.1598 8.4354 24.1762 8.45162C24.1927 8.46784 24.1927 8.50029 24.1762 8.51651L16.4085 16.1654C16.3921 16.1411 16.3673 16.1249 16.3426 16.1005L24.1103 8.45162ZM13.6326 18.8908L5.86487 26.5397C5.8484 26.5559 5.81545 26.5559 5.79898 26.5397C5.7825 26.5235 5.7825 26.491 5.79898 26.4748L13.5667 18.8259C13.5914 18.8502 13.6079 18.8665 13.6326 18.8908Z" fill="#F5F5F5"/>
<path d="M17.0016 0.23526C16.9851 0.219037 16.9851 0.186592 17.0016 0.17037C17.0181 0.154148 17.051 0.154148 17.0675 0.17037L24.8187 7.80305C24.8352 7.81927 24.8352 7.85171 24.8187 7.86794C24.8023 7.88416 24.7693 7.88416 24.7529 7.86794L17.0016 0.23526Z" fill="#F5F5F5"/>
<path d="M5.14834 27.1806C5.13187 27.1644 5.13187 27.1319 5.14834 27.1157C5.16482 27.0995 5.19777 27.0995 5.21424 27.1157L12.9655 34.7484C12.9819 34.7646 12.9819 34.797 12.9655 34.8133C12.949 34.8295 12.9161 34.8295 12.8996 34.8133L5.14834 27.1806Z" fill="#F5F5F5"/>
<path d="M5.79898 26.5399C5.7825 26.5237 5.7825 26.4913 5.79898 26.4751C5.81545 26.4588 5.8484 26.4588 5.86487 26.4751L14.4151 34.9026C14.4316 34.9189 14.4316 34.9513 14.4151 34.9675C14.3986 34.9838 14.3657 34.9838 14.3492 34.9675L5.79898 26.5399Z" fill="#F5F5F5"/>
<path fill-rule="evenodd" clip-rule="evenodd" d="M15.0823 12.1348C16.5074 12.1348 17.8089 12.6701 18.7809 13.5542L17.2817 15.0305C16.6968 14.5276 15.9225 14.2194 15.0823 14.2194C13.2372 14.2194 11.738 15.6956 11.738 17.5125C11.738 19.3294 13.2372 20.8057 15.0823 20.8057C16.9275 20.8057 18.4267 19.3294 18.4267 17.5125C18.4267 16.5716 18.0313 15.728 17.3888 15.1278L18.8797 13.6597C18.995 13.7732 19.1021 13.8868 19.2092 14.0004C19.3328 14.1382 19.4481 14.2842 19.5552 14.4384C20.6342 15.9552 22.0428 16.9285 23.855 17.4071L24.2421 17.5125L23.855 17.618C22.0428 18.0965 20.626 19.0699 19.5552 20.5867C19.4481 20.7408 19.3328 20.8868 19.2092 21.0247C18.2043 22.1684 16.7298 22.8903 15.0741 22.8903C13.4184 22.8903 11.944 22.1684 10.939 21.0247C10.8155 20.8868 10.7001 20.7408 10.5931 20.5867C9.52221 19.0618 8.11365 18.0884 6.30146 17.6099L5.91431 17.5044L6.30146 17.399C8.11365 16.9204 9.53045 15.947 10.6013 14.4302C10.7084 14.2761 10.8237 14.1301 10.9473 13.9922C11.944 12.8567 13.4267 12.1348 15.0823 12.1348Z" fill="#F5F5F5"/>
<path d="M24.8187 7.81152L26.6144 9.57977C27.7264 10.6748 28.5584 11.8834 29.1185 13.2055C29.6787 14.5276 29.967 15.9633 29.967 17.4963C29.967 22.3225 28.2866 26.7026 25.5765 29.866C22.8665 33.0375 19.1185 34.9923 14.9752 34.9923C14.8764 34.9923 14.7775 34.9923 14.6704 34.9923C14.5716 34.9923 14.4727 34.9842 14.3739 34.9842C14.3656 34.9842 14.3492 34.9842 14.3409 34.968L8.73138 29.4361C8.72314 29.428 8.7149 29.4036 8.72314 29.3874C8.73138 29.3631 8.75609 29.355 8.7808 29.3631C11.046 30.1904 13.6408 30.2553 16.1943 29.574C18.6737 28.917 21.1037 27.5624 23.1548 25.5427C25.8566 22.8822 27.3805 19.5809 27.6688 16.377C27.9571 13.1812 27.0098 10.0908 24.7528 7.87641L24.8187 7.81152ZM25.6918 8.80109C27.331 10.9262 28.0065 13.6192 27.7594 16.3851C27.4711 19.6053 25.9307 22.9309 23.2207 25.5995C21.1531 27.6354 18.7067 28.9981 16.219 29.6551C13.7231 30.3202 11.1861 30.2797 8.94554 29.5091L14.4068 34.8868C14.5057 34.895 14.5963 34.895 14.6869 34.895C14.7775 34.895 14.8846 34.895 14.9834 34.895C19.0938 34.895 22.817 32.9483 25.5106 29.8011C28.2042 26.6539 29.8764 22.2982 29.8764 17.4882C29.8681 15.9633 29.588 14.5439 29.0362 13.2298C28.4843 11.9158 27.6523 10.7153 26.5485 9.63655L25.6918 8.80109Z" fill="#F5F5F5"/>
<path d="M21.8781 6.31914L21.9193 6.35969C22.5124 6.9437 22.8089 7.70616 22.8089 8.47672C22.8089 9.23918 22.5206 10.0016 21.9358 10.5856L21.9275 10.5938C21.911 10.61 21.911 10.6424 21.9275 10.6586C21.944 10.6749 21.9769 10.6749 21.9934 10.6586L24.168 8.51728C24.1845 8.50106 24.1845 8.46861 24.168 8.45239L21.9852 6.30291L15.6178 0.0248126C15.5189 0.0167013 15.4201 0.0167013 15.3213 0.0167013C15.2142 0.0167013 15.1153 0.0167013 15.0165 0.0167013C10.8484 0.000478864 7.10049 1.9634 4.39045 5.12678C1.67216 8.29017 0 12.6702 0 17.4964C0.00823723 19.0376 0.288303 20.4651 0.848435 21.7873C1.40857 23.1094 2.24053 24.318 3.35255 25.413L5.14827 27.1812L5.18122 27.1488L5.21417 27.1164C2.95717 24.8939 2.00988 21.8116 2.29819 18.6158C2.58649 15.4199 4.11862 12.1106 6.81219 9.45007C8.86326 7.43037 11.3015 6.0758 13.7727 5.41879C15.1483 5.05378 16.5404 4.89967 17.8913 4.97267C19.3328 5.04567 20.8402 5.28901 21.8781 6.31914Z" fill="#F5F5F5"/>
<path fill-rule="evenodd" clip-rule="evenodd" d="M8.0149 24.3584C6.81226 25.5426 6.81226 27.465 8.00666 28.6492L5.83203 26.5079L8.0149 24.3584Z" fill="#F5F5F5"/>
<path d="M8.04774 24.3908C7.45466 24.9748 7.15812 25.7372 7.15812 26.5078C7.15812 27.2703 7.44642 28.0327 8.03127 28.6167L8.0395 28.6248C8.05598 28.6411 8.05598 28.6735 8.0395 28.6897C8.02303 28.7059 7.99008 28.7059 7.97361 28.6897L5.79898 26.5484C5.7825 26.5321 5.7825 26.4997 5.79898 26.4835L7.98184 24.334L8.04774 24.3908ZM7.06751 26.5078C7.06751 25.9562 7.21578 25.3966 7.52056 24.9099L5.89782 26.5078L7.5288 28.1138C7.21578 27.619 7.06751 27.0675 7.06751 26.5078Z" fill="#F5F5F5"/>
<path d="M14.9836 15.5254C15.4861 15.5254 15.9473 15.7119 16.3015 16.0121L16.2356 16.077C15.8979 15.7931 15.4613 15.6146 14.9836 15.6146C14.4564 15.6146 13.9786 15.8255 13.6327 16.1662C13.2867 16.5069 13.0725 16.9773 13.0725 17.4964C13.0725 18.0155 13.2867 18.486 13.6327 18.8267C13.9786 19.1673 14.4564 19.3782 14.9836 19.3782C15.5108 19.3782 15.9885 19.1673 16.3345 18.8267C16.6805 18.486 16.8946 18.0155 16.8946 17.4964C16.8946 16.9773 16.6805 16.5069 16.3345 16.1662C16.3262 16.1581 16.3098 16.1418 16.3015 16.1337L16.3674 16.0688C16.3757 16.077 16.3921 16.0932 16.4004 16.1013C16.7628 16.4582 16.9852 16.953 16.9852 17.4964C16.9852 18.0399 16.7628 18.5347 16.4004 18.8916C16.0379 19.2484 15.5355 19.4675 14.9836 19.4675C14.4317 19.4675 13.9292 19.2484 13.5668 18.8916C13.2043 18.5347 12.9819 18.0399 12.9819 17.4964C12.9819 16.953 13.2043 16.4582 13.5668 16.1013C13.9292 15.7444 14.4317 15.5254 14.9836 15.5254Z" fill="#F5F5F5"/>
<path fill-rule="evenodd" clip-rule="evenodd" d="M14.9917 16.0117C15.3541 16.0117 15.6836 16.1415 15.9472 16.3443L15.2306 17.05C15.1564 17.0094 15.0823 16.9932 14.9917 16.9932C14.7116 16.9932 14.4892 17.2122 14.4892 17.488C14.4892 17.7637 14.7116 17.9828 14.9917 17.9828C15.2717 17.9828 15.4941 17.7637 15.4941 17.488C15.4941 17.3339 15.42 17.196 15.3129 17.1067L16.0213 16.4092C16.3096 16.6768 16.4991 17.0662 16.4991 17.488C16.4991 18.3072 15.8236 18.9642 14.9999 18.9642C14.1679 18.9642 13.5007 18.2991 13.5007 17.488C13.5007 16.6768 14.1597 16.0117 14.9917 16.0117Z" fill="#F5F5F5"/>
<path d="M14.9835 16.9932C15.0741 16.9932 15.1565 17.0175 15.2306 17.0581L15.1647 17.1229C15.1071 17.0986 15.0494 17.0824 14.9835 17.0824C14.8682 17.0824 14.7611 17.1311 14.687 17.2041C14.6128 17.2771 14.5634 17.3825 14.5634 17.4961C14.5634 17.6096 14.6128 17.7151 14.687 17.7881C14.7611 17.8611 14.8682 17.9097 14.9835 17.9097C15.0988 17.9097 15.2059 17.8611 15.28 17.7881C15.3542 17.7151 15.4036 17.6096 15.4036 17.4961C15.4036 17.3825 15.3542 17.2771 15.28 17.2041C15.2718 17.1959 15.2553 17.1878 15.2471 17.1716L15.313 17.1067C15.3212 17.1148 15.3377 17.1229 15.3459 17.1392C15.4365 17.2284 15.4942 17.3501 15.4942 17.488C15.4942 17.6258 15.4365 17.7475 15.3459 17.8367C15.2553 17.926 15.1318 17.9827 14.9917 17.9827C14.8517 17.9827 14.7281 17.926 14.6375 17.8367C14.5469 17.7475 14.4893 17.6258 14.4893 17.488C14.4893 17.3501 14.5469 17.2284 14.6375 17.1392C14.7199 17.0499 14.8435 16.9932 14.9835 16.9932Z" fill="#F5F5F5"/>
<path d="M17.397 15.0542C17.4135 15.0379 17.4465 15.0379 17.4629 15.0542C17.4794 15.0704 17.4794 15.1028 17.4629 15.119L15.0165 17.5281C15 17.5443 14.9671 17.5443 14.9506 17.5281C14.9341 17.5119 14.9341 17.4794 14.9506 17.4632L17.397 15.0542Z" fill="#F5F5F5"/>
<path fill-rule="evenodd" clip-rule="evenodd" d="M14.9835 17.3906C15.0412 17.3906 15.0906 17.4393 15.0906 17.4961C15.0906 17.5529 15.0412 17.6015 14.9835 17.6015C14.9259 17.6015 14.8765 17.5529 14.8765 17.4961C14.8765 17.4393 14.9259 17.3906 14.9835 17.3906Z" fill="#F5F5F5"/>
<path d="M14.9835 17.3496C15.0247 17.3496 15.0658 17.3658 15.0906 17.3902C15.1153 17.4145 15.1317 17.4551 15.1317 17.4956C15.1317 17.5362 15.1153 17.5767 15.0906 17.6011C15.0658 17.6254 15.0247 17.6416 14.9835 17.6416C14.9423 17.6416 14.9011 17.6254 14.8764 17.6011C14.8517 17.5767 14.8352 17.5362 14.8352 17.4956C14.8352 17.4551 14.8517 17.4145 14.8764 17.3902C14.9011 17.3658 14.9423 17.3496 14.9835 17.3496ZM15.0247 17.4551C15.0164 17.4469 14.9999 17.4388 14.9835 17.4388C14.967 17.4388 14.9505 17.4469 14.9423 17.4551C14.9341 17.4632 14.9258 17.4794 14.9258 17.4956C14.9258 17.5118 14.9341 17.5281 14.9423 17.5362C14.9505 17.5443 14.967 17.5524 14.9835 17.5524C14.9999 17.5524 15.0164 17.5443 15.0247 17.5362C15.0329 17.5281 15.0411 17.5118 15.0411 17.4956C15.0494 17.4794 15.0411 17.4632 15.0247 17.4551Z" fill="#F5F5F5"/>
<path d="M8.12189 28.6892L8.0807 28.6486C7.48762 28.0646 7.19108 27.3022 7.19108 26.5316C7.19108 25.7691 7.47938 25.0067 8.06423 24.4227L8.07246 24.4146C8.08894 24.3983 8.08894 24.3659 8.07246 24.3497C8.05599 24.3334 8.02304 24.3334 8.00656 24.3497L5.83194 26.491C5.81546 26.5073 5.81546 26.5397 5.83194 26.5559L8.0148 28.7054L14.3822 34.9754C14.481 34.9835 14.5799 34.9835 14.6787 34.9835C14.7858 34.9835 14.8847 34.9835 14.9835 34.9835C19.1186 34.9835 22.8665 33.0206 25.5848 29.8572C28.2949 26.6938 29.9753 22.3219 29.9753 17.4876C29.967 15.9464 29.687 14.5188 29.1268 13.1967C28.5667 11.8746 27.7347 10.666 26.6227 9.57098L24.827 7.80273L24.794 7.83518L24.7611 7.86762C27.0181 10.0901 27.9654 13.1724 27.6771 16.3682C27.3888 19.564 25.8566 22.8734 23.1631 25.5339C21.112 27.5536 18.6738 28.9082 16.2026 29.5652C14.827 29.9302 13.4349 30.0843 12.084 30.0113C10.6672 29.9545 9.15978 29.7112 8.12189 28.6892Z" fill="#F5F5F5"/>
</g>
<defs>
<clipPath id="clip0_2480_26774">
<rect width="30" height="35" fill="white"/>
</clipPath>
</defs>
</svg>

<svg xmlns="http://www.w3.org/2000/svg" width="167" height="35" fill="none" viewBox="0 0 167 35"><path fill="#F5F5F5" d="M52.079 31c7.944 0 13.116-4.927 13.116-12.5 0-7.572-5.171-12.5-13.116-12.5C44.209 6 39 10.928 39 18.5 39 26.073 44.209 31 52.079 31Zm0-3.768c-5.959 0-8.807-2.681-8.807-8.732 0-6.05 2.848-8.768 8.807-8.768 5.958 0 8.844 2.717 8.844 8.768 0 6.05-2.886 8.732-8.844 8.732Zm20.154 3.406V20.529c0-3.225 1.311-4.928 4.496-4.928 2.774 0 3.898 1.196 3.898 3.769v1.594h4.01v-2.355c0-3.406-1.837-6.34-6.071-6.34-3.823 0-5.846 2.318-6.408 5.216h-.263V12.63h-3.71v18.008h4.047ZM95.386 31c4.197 0 6.933-1.956 7.72-5.544h.262v5.182h3.71V6.362h-4.047v11.16h-.225c-.749-3.044-3.26-5.254-7.682-5.254-5.66 0-8.882 3.768-8.882 9.384 0 5.544 3.26 9.348 9.144 9.348Zm-5.06-9.348c0-4.348 2.324-5.833 6.222-5.833 4.159 0 6.483 1.884 6.483 5.725v.29c0 3.767-2.436 5.579-6.408 5.579-4.01 0-6.296-1.45-6.296-5.76ZM118.578 31c4.797 0 7.27-2.899 7.87-5.942h.224v5.58h3.71V12.63h-4.009v8.914c0 3.912-1.912 5.941-6.034 5.941-3.935 0-5.546-1.702-5.546-5.072V12.63h-4.01v10.834c0 4.166 2.548 7.536 7.795 7.536Zm19.529-.362v-8.913c0-3.986 1.386-5.942 5.396-5.942 3.598 0 5.022 1.521 5.022 5.072v9.783h4.01v-8.913c0-3.986 1.424-5.942 5.396-5.942 3.598 0 5.059 1.521 5.059 5.072v9.783H167V19.804c0-4.347-2.436-7.536-7.27-7.536-4.722 0-6.821 2.862-7.308 5.942h-.225c-.524-3.442-2.81-5.942-7.045-5.942-4.647 0-6.671 2.79-7.158 5.797h-.225V12.63h-3.71v18.008h4.048Z"/><g fill="#F5F5F5" clip-path="url(#a)"><path d="M24.753 7.876a.049.049 0 0 1 0-.064.05.05 0 0 1 .066 0c2.273 2.238 3.229 5.353 2.94 8.573-.288 3.22-1.828 6.546-4.538 9.214-2.068 2.036-4.514 3.4-7.002 4.056-2.562.681-5.181.617-7.463-.219-.025-.008-.033-.032-.025-.057.009-.024.033-.032.058-.024 2.265.827 4.86.892 7.414.21 2.479-.656 4.909-2.01 6.96-4.03 2.702-2.66 4.226-5.962 4.514-9.166.28-3.188-.667-6.27-2.924-8.493ZM5.214 27.116a.049.049 0 0 1 0 .065.05.05 0 0 1-.066 0c-2.273-2.239-3.229-5.353-2.94-8.573.288-3.22 1.828-6.546 4.546-9.223 2.068-2.036 4.514-3.398 7.002-4.055 2.562-.682 5.181-.617 7.463.219.025.008.033.032.025.056-.009.025-.033.033-.058.025-2.265-.828-4.86-.893-7.413-.211-2.48.657-4.91 2.011-6.96 4.031-2.703 2.66-4.227 5.962-4.515 9.166-.288 3.196.66 6.278 2.916 8.5ZM24.11 8.452c.017-.017.05-.017.066 0a.049.049 0 0 1 0 .065l-7.767 7.648c-.017-.024-.042-.04-.066-.064l7.767-7.65ZM13.633 18.89l-7.768 7.65a.05.05 0 0 1-.066 0 .049.049 0 0 1 0-.065l7.768-7.65.066.066Z"/><path d="M17.002.235a.049.049 0 0 1 0-.065.05.05 0 0 1 .066 0l7.75 7.633a.049.049 0 0 1 0 .065c-.016.016-.049.016-.065 0L17.002.235ZM5.148 27.18a.049.049 0 0 1 0-.064.05.05 0 0 1 .066 0l7.752 7.632c.016.017.016.049 0 .065a.05.05 0 0 1-.066 0l-7.752-7.632Zm.651-.64a.049.049 0 0 1 0-.065.05.05 0 0 1 .066 0l8.55 8.428a.049.049 0 0 1 0 .065.05.05 0 0 1-.066 0L5.8 26.54Z"/><path fill-rule="evenodd" d="M15.082 12.135a5.48 5.48 0 0 1 3.699 1.42l-1.5 1.476a3.374 3.374 0 0 0-2.199-.812c-1.845 0-3.344 1.477-3.344 3.293 0 1.817 1.5 3.294 3.344 3.294 1.845 0 3.345-1.477 3.345-3.294 0-.94-.396-1.784-1.038-2.384l1.49-1.468c.116.113.223.227.33.34.124.138.24.284.346.438 1.08 1.517 2.488 2.49 4.3 2.97l.387.104-.387.106c-1.812.479-3.229 1.452-4.3 2.969a5.48 5.48 0 0 1-4.481 2.304 5.48 5.48 0 0 1-4.48-2.304c-1.072-1.525-2.48-2.499-4.293-2.977l-.387-.106.387-.105c1.813-.479 3.23-1.452 4.3-2.969a5.488 5.488 0 0 1 4.481-2.295Z" clip-rule="evenodd"/><path d="m24.819 7.812 1.795 1.768c1.112 1.095 1.944 2.303 2.505 3.626.56 1.322.848 2.757.848 4.29 0 4.827-1.68 9.207-4.39 12.37-2.71 3.172-6.459 5.126-10.602 5.126h-.305c-.098 0-.197-.008-.296-.008-.008 0-.025 0-.033-.016l-5.61-5.532c-.008-.008-.016-.032-.008-.049.008-.024.033-.032.058-.024 2.265.827 4.86.892 7.413.211 2.48-.657 4.91-2.012 6.96-4.031 2.703-2.66 4.227-5.962 4.515-9.166.288-3.196-.66-6.286-2.916-8.5l.066-.065Zm.873.99c1.639 2.124 2.314 4.817 2.067 7.583-.288 3.22-1.828 6.546-4.538 9.214-2.068 2.036-4.514 3.4-7.002 4.056-2.496.665-5.033.625-7.273-.146l5.46 5.378c.1.008.19.008.28.008h.297c4.11 0 7.834-1.947 10.528-5.094 2.693-3.147 4.365-7.503 4.365-12.313-.008-1.525-.288-2.944-.84-4.258s-1.384-2.515-2.488-3.593l-.856-.836ZM21.878 6.32l.041.04c.593.584.89 1.346.89 2.117 0 .762-.288 1.525-.873 2.109l-.009.008a.049.049 0 0 0 0 .065.05.05 0 0 0 .066 0l2.175-2.142a.049.049 0 0 0 0-.065l-2.183-2.15L15.618.026c-.1-.008-.198-.008-.297-.008h-.304C10.848 0 7.1 1.963 4.39 5.127 1.672 8.29 0 12.67 0 17.497c.008 1.54.288 2.968.848 4.29s1.393 2.531 2.505 3.626l1.795 1.768.033-.032.033-.033c-2.257-2.222-3.204-5.304-2.916-8.5.288-3.196 1.82-6.505 4.514-9.166 2.051-2.02 4.49-3.374 6.96-4.031a13.297 13.297 0 0 1 4.12-.446c1.44.073 2.948.316 3.986 1.346Z"/><path fill-rule="evenodd" d="M8.015 24.358a3.01 3.01 0 0 0-.008 4.291l-2.175-2.141 2.183-2.15Z" clip-rule="evenodd"/><path d="M8.048 24.39a2.954 2.954 0 0 0-.89 2.118c0 .762.288 1.525.873 2.109l.008.008a.049.049 0 0 1 0 .065.05.05 0 0 1-.065 0l-2.175-2.142a.049.049 0 0 1 0-.064l2.183-2.15.066.057Zm-.98 2.118c0-.552.148-1.111.453-1.598l-1.623 1.598 1.63 1.606a2.979 2.979 0 0 1-.46-1.606Zm7.916-10.983c.502 0 .963.187 1.318.487l-.066.065a1.944 1.944 0 0 0-1.252-.462 1.92 1.92 0 0 0-1.351.551 1.862 1.862 0 0 0 0 2.66c.346.341.823.552 1.35.552a1.92 1.92 0 0 0 1.351-.551 1.862 1.862 0 0 0 0-2.66l-.032-.033.065-.065.033.032a1.953 1.953 0 0 1 0 2.79 2.015 2.015 0 0 1-1.416.577c-.552 0-1.055-.22-1.417-.576a1.953 1.953 0 0 1 0-2.79 2.014 2.014 0 0 1 1.417-.577Z"/><path fill-rule="evenodd" d="M14.992 16.012c.362 0 .692.13.955.332l-.716.706a.472.472 0 0 0-.24-.057.495.495 0 1 0 0 .99.496.496 0 0 0 .322-.876l.708-.698c.289.268.478.657.478 1.079 0 .82-.675 1.476-1.5 1.476a1.487 1.487 0 0 1-1.498-1.476 1.48 1.48 0 0 1 1.49-1.476Z" clip-rule="evenodd"/><path d="M14.983 16.993a.51.51 0 0 1 .248.065l-.066.065a.427.427 0 0 0-.478.081.414.414 0 0 0-.124.292c0 .114.05.22.124.292a.427.427 0 0 0 .296.122.427.427 0 0 0 .297-.122.414.414 0 0 0 .124-.292.414.414 0 0 0-.124-.292c-.008-.008-.025-.016-.033-.032l.066-.065c.008.008.025.016.033.032a.487.487 0 0 1 0 .698.501.501 0 0 1-.709 0 .486.486 0 0 1 0-.698.468.468 0 0 1 .346-.146Z"/><path d="M17.397 15.054c.017-.016.05-.016.066 0a.049.049 0 0 1 0 .065l-2.447 2.41a.05.05 0 0 1-.065 0 .049.049 0 0 1 0-.066l2.446-2.409Z"/><path fill-rule="evenodd" d="M14.983 17.39a.11.11 0 0 1 .108.106c0 .057-.05.106-.107.106a.108.108 0 0 1-.107-.106c0-.057.049-.105.106-.105Z" clip-rule="evenodd"/><path d="M14.983 17.35a.16.16 0 0 1 .108.04.153.153 0 0 1 .04.106c0 .04-.016.08-.04.105a.158.158 0 0 1-.107.04.158.158 0 0 1-.108-.04.153.153 0 0 1-.04-.105.16.16 0 0 1 .04-.106.158.158 0 0 1 .107-.04Zm.042.105a.063.063 0 0 0-.042-.016.063.063 0 0 0-.04.016.062.062 0 0 0-.017.04c0 .017.008.033.016.041a.063.063 0 0 0 .041.016.064.064 0 0 0 .042-.016.062.062 0 0 0 .016-.04c.008-.017 0-.033-.016-.04Z"/><path d="m8.122 28.69-.041-.041a2.954 2.954 0 0 1-.89-2.117c0-.763.288-1.525.873-2.11l.008-.007a.049.049 0 0 0 0-.065.05.05 0 0 0-.065 0l-2.175 2.14a.049.049 0 0 0 0 .065l2.183 2.15 6.367 6.27c.099.008.198.008.297.008h.304c4.136 0 7.883-1.963 10.602-5.127 2.71-3.163 4.39-7.535 4.39-12.37-.008-1.54-.288-2.968-.848-4.29s-1.392-2.531-2.504-3.626l-1.796-1.768-.033.032-.033.033c2.257 2.222 3.204 5.304 2.916 8.5-.288 3.196-1.82 6.505-4.514 9.166-2.051 2.02-4.49 3.374-6.96 4.031a13.27 13.27 0 0 1-4.119.446c-1.417-.056-2.924-.3-3.962-1.322Z"/></g><defs><clipPath id="a"><path fill="#fff" d="M0 0h30v35H0z"/></clipPath></defs></svg>
